!! 00000] TT[00
!! NN
!!!OTL: Sheng jizi jiao ming
!!!ARE: Asia, China,ÿGansu, Huixian
!! Ethnic Group: Han
!! I, 145, 1)
!!!SCT: C0495
!!!YEM: Copyright 1995, estate of Helmut Schaffrath.
**kern
*ICvox
*Ivox
*M2/4
*k[b-e-]
*B-:
{8r
8ff
=1
8fff
4fff
8ccc
=2
4.eee-
8ccc
=3
8fff
4fff
8ccc
=4
4.bb-
8gg
=5
4.ff}
{8ff
=6
8fff
4fff
8ccc
=7
4.eee-
8ccc
=8
8fff
4fff
8ccc
=9
4.bb-
8gg
=10
4.ff}
{8ff
=11
8.ccc
16fff
8ccc
8bb-
=12
8.ccc
16fff
8ccc
8bb-
=13
8gg
16ff
16ff
8bb-
8ff
=14
4.aa
8ff}
=15
{8.ccc
16fff
8ccc
8bb-
=16
8.ccc
16fff
8ccc
8bb-
=17
8gg
16ff
16ff
8bb-
8ff
=18
4.aa
8ff}
=19
{8fff
4fff
8ccc
=20
4.eee-
8ccc
=21
8fff
4fff
8ccc
=22
4.bb-
8gg
=23
4.ff
8r}
==
!!!AGN: Haozi, Jigong haozi, Jaodung xiuxi, Xiqing, Hunyan shang chang
!! Es wird das Gackern eines Huhns imitiert. Entsprechend besteht der
!!    Text nur aus Fuellwoertern.
!!!ONB: ESAC (Essen Associative Code) Database: CHINA
!!!AMT: simple duple
!!!AIN: vox
!!!EED: Helmut Schaffrath
!!!EEV: 1.0
*-
